X: 29293
T: New Road, The
R: reel
M: 4/4
K: Dmajor
|:FDFA d3B|=cAGE Cc c2|DEFA dfed|cAGE EDDE|
FDFA d3B|=cAGD Ec c2|AB=cA dfed|1 cAGE EDDE:|2 cAGE EDD2||
|:defg afge|=cdef g2 fe|defg adfa|geag eddf|
afdf adfa|gece g2 fe|defg a2 fa|1 geag eddA:|2 geag edde||
fdde fddf|eAAf g4|fade fage|fded Adde|
fdde fddf|eAAf g2 fg|a2 ge dfed|cAAG EFGE||

